src/pos-icons/gender-transgender.svg

<svg height="24" viewBox="0 0 24 24" width="24" xmlns="http://www.w3.org/2000/svg"><path d="m19.58 3h-4.58v-2h8v8h-2v-4.59l-4.83 4.83c.52.79.83 1.76.83 2.76 0 2.42-1.72 4.44-4 4.9v2.1h2v2h-2v2h-2v-2h-2v-2h2v-2.1c-2.28-.46-4-2.48-4-4.9 0-1 .3-1.96.82-2.74l-1.18-1.19-1.4 1.39-1.41-1.42 1.4-1.39-2.23-2.23v3.58h-2v-7h7v2h-3.59l2.23 2.24 1.44-1.43 1.42 1.42-1.44 1.43 1.17 1.18c.77-.53 1.77-.84 2.77-.84s1.96.3 2.75.83zm-7.58 6a3 3 0 0 0 -3 3 3 3 0 0 0 3 3 3 3 0 0 0 3-3 3 3 0 0 0 -3-3z"/></svg>

<?xml version="1.0" encoding="UTF-8"?><!DOCTYPE svg PUBLIC "-//W3C//DTD SVG 1.1//EN" "http://www.w3.org/Graphics/SVG/1.1/DTD/svg11.dtd"><svg xmlns="http://www.w3.org/2000/svg" xmlns:xlink="http://www.w3.org/1999/xlink" version="1.1" id="mdi-gender-transgender" width="24" height="24" viewBox="0 0 24 24"><path d="M19.58,3H15V1H23V9H21V4.41L16.17,9.24C16.69,10.03 17,11 17,12C17,14.42 15.28,16.44 13,16.9V19H15V21H13V23H11V21H9V19H11V16.9C8.72,16.44 7,14.42 7,12C7,11 7.3,10.04 7.82,9.26L6.64,8.07L5.24,9.46L3.83,8.04L5.23,6.65L3,4.42V8H1V1H8V3H4.41L6.64,5.24L8.08,3.81L9.5,5.23L8.06,6.66L9.23,7.84C10,7.31 11,7 12,7C13,7 13.96,7.3 14.75,7.83L19.58,3M12,9A3,3 0 0,0 9,12A3,3 0 0,0 12,15A3,3 0 0,0 15,12A3,3 0 0,0 12,9Z" /></svg>
